src/Pure/16/symbolic/actions/view-list-ordered-symbolic.svg

<?xml version="1.0" encoding="UTF-8" standalone="no"?>
<svg
   width="16"
   height="16"
   version="1.1"
   id="svg3"
   sodipodi:docname="view-list-ordered-symbolic.svg"
   inkscape:version="1.4.2 (ebf0e940d0, 2025-05-08)"
   xmlns:inkscape="http://www.inkscape.org/namespaces/inkscape"
   xmlns:sodipodi="http://sodipodi.sourceforge.net/DTD/sodipodi-0.dtd"
   xmlns="http://www.w3.org/2000/svg"
   xmlns:svg="http://www.w3.org/2000/svg">
  <defs
     id="defs3">
     <style
        id="current-color-scheme"
        type="text/css">
        .ColorScheme-Text { color:#363636; }
     </style>
  </defs>
  <sodipodi:namedview
     id="namedview3"
     pagecolor="#ffffff"
     bordercolor="#000000"
     borderopacity="0.25"
     inkscape:showpageshadow="2"
     inkscape:pageopacity="0.0"
     inkscape:pagecheckerboard="0"
     inkscape:deskcolor="#d1d1d1"
     inkscape:zoom="49.6875"
     inkscape:cx="8.4830189"
     inkscape:cy="8.3823899"
     inkscape:window-width="1920"
     inkscape:window-height="1010"
     inkscape:window-x="0"
     inkscape:window-y="0"
     inkscape:window-maximized="1"
     inkscape:current-layer="svg3" />
  <path
     id="path1"
     style="fill:currentColor"
     class="ColorScheme-Text"
     d="M 3.5175781 2.515625 L 1.8242188 3.3789062 L 2.1328125 3.9648438 L 3.1894531 3.4882812 L 3.1894531 6.9960938 L 4.0117188 6.9960938 L 4.0117188 2.515625 L 3.5175781 2.515625 z M 6 4 L 6 5 L 14 5 L 14 4 L 6 4 z M 3.3496094 8.453125 C 2.7897394 8.453125 2.2747719 8.6399694 1.8886719 8.9746094 L 2.109375 9.5722656 C 2.463315 9.3084156 2.8489537 9.1796875 3.1835938 9.1796875 C 3.6919837 9.1796875 4.0058594 9.46865 4.0058594 9.90625 C 4.0058594 10.50473 3.3888288 11.181056 2.0117188 12.410156 L 2.0117188 12.982422 L 5.0097656 12.982422 L 5.0097656 12.261719 L 3.2148438 12.261719 C 4.3796438 11.238519 4.8632813 10.510944 4.8632812 9.7773438 C 4.8632812 8.9664937 4.2634294 8.453125 3.3496094 8.453125 z M 6 10 L 6 11 L 14 11 L 14 10 L 6 10 z " />
</svg>

<svg width="16" height="16" version="1.1" xmlns="http://www.w3.org/2000/svg">
 <g fill="#363636">
  <g aria-label="1">
   <path d="m3.1889 6.9956h0.82372v-4.479h-0.49552l-1.6925 0.86233 0.30889 0.58561 1.0554-0.47621z" fill="#363636" stroke-width=".16088"/>
  </g>
  <g aria-label="2">
   <path d="m2.0119 12.983h2.9988v-0.72075h-1.7954c1.1648-1.0232 1.6474-1.7504 1.6474-2.484 0-0.81085-0.59848-1.3257-1.5123-1.3257-0.55987 0-1.0747 0.18662-1.4608 0.52126l0.2188 0.59848c0.35394-0.26385 0.74006-0.39255 1.0747-0.39255 0.50839 0 0.82372 0.28959 0.82372 0.72719 0 0.59848-0.61779 1.2742-1.9949 2.5033z" fill="#363636" stroke-width=".16088"/>
  </g>
  <rect x="6" y="4" width="8" height="1" rx="0" ry="0"/>
  <rect x="6" y="10" width="8" height="1" rx="0" ry="0"/>
 </g>
</svg>
